!!!!SEGMENT: pl-cz--iii-563--001-009_raszek-waclaw--missa-ex-dis-agnus-dei.krn
!!!cenid: 17xx:1078
!!!COM: Raszek, Wacław
!!!COM-rismID:
!!!CDT: <1848->1848
!!!CNT:
!!!OPR: Missa ex Dis
!!!OTL: Agnus Dei
!!!OMV: 009
!!!PDT:
!!!AGN: Sacred; Mass
!!!SMS-siglum: PL-CZ
!!!SMS-shelfmark: III-563
!!!SMS-shelfwork: 001-009 M
!!!SMS-variant:
!!!SMS-altvar:
!!!NIFC-rismSourceID: 300001050
!!!NIFC-islandoraID: pl-cz:39135
!!!URL-pdf-islandora: https://repozytorium.nifc.pl/islandora/object/pl-cz%3A39135/datastream/PDF/view
!!!URL-scan:
!!!ONB-nifc: UWAGA: części Mszy: Kyrie, Gloria, Credo, Et incarnatus, Et resurrexit, Sanctus, Pleni sunt, Benedictus, Agnus Dei, Dona nobis
!!!AIN: 1 alto 1 cor 5 empty 1 organ 1 tenor 2 violn 1 vox
!!!key:
**kern	**dynam	**kern	**dynam	**kern	**dynam	**kern	**dynam	**kern	**text	**kern	**text	**kern	**text	**kern	**text	**dynam	**kern	**dynam	**kern	**dynam	**kern	**dynam	**kern
*part12	*part12	*part11	*part11	*part10	*part10	*part9	*part9	*part8	*part8	*part7	*part7	*part6	*part6	*part5	*part5	*part5	*part4	*part4	*part3	*part3	*part2	*part2	*part1
*staff12	*	*staff11	*	*staff10	*	*staff9	*	*staff8	*staff8	*staff7	*staff7	*staff6	*staff6	*staff5	*staff5	*	*staff4	*	*staff3	*	*staff2	*	*staff1
*Iorgan	*	*Iempty	*	*Ivioln	*	*Ivioln	*	*Iempty	*	*Itenor	*	*Ialto	*	*Ivox	*	*	*Icor	*	*Iempty	*	*Iempty	*	*Iempty
*I"Organo.	*	*I"Viola obligata.	*	*I"Violino 2.do	*	*I"Violino Primo	*	*I"Baſso.	*	*I"Tenore.	*	*I"Alto.	*	*I"Canto.	*	*	*I"Corno Secundo in Dis	*	*I"Cornu Primo in Dis.	*	*I"Clarinetto Secondo. in: B	*	*I"Clarinetto Primo. in: B
*I'org	*	*I'vla	*	*I'vl II	*	*I'vl I	*	*I'B	*	*I'T	*	*I'A	*	*I'C	*	*	*I'cor II	*	*I'cor I	*	*I'cl II	*	*I'cl I
*clefF4	*	*clefC3	*	*clefG2	*	*clefG2	*	*clefF4	*	*clefC4	*	*clefC3	*	*clefC1	*	*	*clefG2	*	*clefG2	*	*clefG2	*	*clefG2
*	*	*	*	*	*	*	*	*	*	*	*	*	*	*	*	*	*ITrd5c9	*	*ITrd5c9	*	*ITrd1c2	*	*ITrd1c2
*k[b-e-a-]	*	*k[b-e-a-]	*	*k[b-e-a-]	*	*k[b-e-a-]	*	*k[b-e-a-]	*	*k[b-e-a-]	*	*k[b-e-a-]	*	*k[b-e-a-]	*	*	*k[b-e-a-]	*	*k[b-e-a-]	*	*k[b-e-a-]	*	*k[b-e-a-]
*c:	*	*c:	*	*c:	*	*c:	*	*c:	*	*c:	*	*c:	*	*c:	*	*	*c:	*	*c:	*	*c:	*	*c:
*M4/4	*	*M4/4	*	*M4/4	*	*M4/4	*	*M4/4	*	*M4/4	*	*M4/4	*	*M4/4	*	*	*M4/4	*	*M4/4	*	*M4/4	*	*M4/4
*met(c)	*	*met(c)	*	*met(c)	*	*met(c)	*	*met(c)	*	*met(c)	*	*met(c)	*	*met(c)	*	*	*met(c)	*	*met(c)	*	*met(c)	*	*met(c)
=1	=1	=1	=1	=1	=1	=1	=1	=1	=1	=1	=1	=1	=1	=1	=1	=1	=1	=1	=1	=1	=1	=1	=1
*	*	*2\right	*	*2\right	*	*2\right	*	*	*	*	*	*	*	*	*	*	*	*	*	*	*	*	*
*	*	*tremolo	*	*	*	*	*	*	*	*	*	*	*	*	*	*	*	*	*	*	*	*	*
!	!	!	!	!	!	!	!	!	!	!	!	!	!	!	!	!	!	!	!	!	!	!	!LO:TX:a:t=P:problem=w źródle brak partii Clarinetto Primo.
!LO:TX:a:t=6	!	!	!	!	!	!	!	!	!	!	!	!	!	!	!	!	!	!	!	!	!	!	!
!LO:TX:t=P:problem=kolejność znaków BB- E- A-	!	!	!	!	!	!	!	!	!	!	!	!	!	!	!	!	!	!	!	!	!	!	!
!LO:TX:a:t=C moli.	!	!	!	!	!	!	!	!	!	!	!	!	!	!	!	!	!	!	!	!	!	!	!
!LO:TX:a:B:t=ad&colon;	!	!LO:TX:a:B:t=ada&colon;	!	!	!	!	!	!	!	!	!	!	!	!	!	!	!	!	!	!	!	!	!
!	!	!	!	!	!	!	!	!LO:TX:t=P:problem=oznaczenie metryczne C z ogonkiem	!	!	!	!LO:TX:t=P:problem=oznaczenie metryczne C z ogonkiem	!	!	!	!	!	!	!	!	!LO:TX:t=P:problem=oznaczenie metryczne C z ogonkiem	!	!
!	!	!LO:TX:t=P:p = po:problem	!	!	!	!LO:TX:t=P:problem=oznaczenie metryczne C z ogonkiem	!	!LO:TX:t=P:problem=kolejność znaków BB- E- A-	!	!LO:TX:t=P:problem=oznaczenie metryczne C z ogonkiem	!	!LO:TX:t=P:problem=kolejność znaków B- e- a-	!	!LO:TX:t=P:problem=kolejność znaków e- b- a-	!	!	!LO:TX:t=P:problem=oznaczenie metryczne C z ogonkiem	!	!	!	!LO:TX:b:t=4.	!	!
!	!	!LO:TX:t=P:problem=przy kluczu B- e- jeden pod drugim	!LO:DY:a	!LO:TX:a:B:t=adagio	!	!LO:TX:a:B:t=adagio	!	!LO:TX:a:B:t=adagio	!	!LO:TX:a:B:t=adagio	!	!LO:TX:a:B:t=adagio	!	!LO:TX:a:B:t=ada&colon;	!	!	!LO:TX:a:B:t=ada&colon;	!LO:DY:a	!LO:TX:a:B:t=ada	!	!LO:TX:a:B:t=Adagio.	!	!
0r	.	8c\L	p	8e-/L	p	4gg\	p	00r	.	00r	.	00r	.	00r	.	.	00r	p	00r	.	00r	.	1ryy
.	.	8c\	.	8e-/	.	.	.	.	.	.	.	.	.	.	.	.	.	.	.	.	.	.	.
.	.	8c\	.	8e-/	.	(16ff\LL	.	.	.	.	.	.	.	.	.	.	.	.	.	.	.	.	.
.	.	.	.	.	.	16ee-\)	.	.	.	.	.	.	.	.	.	.	.	.	.	.	.	.	.
.	.	8c\J	.	8e-/J	.	(16dd\	.	.	.	.	.	.	.	.	.	.	.	.	.	.	.	.	.
.	.	.	.	.	.	16cc\JJ)	.	.	.	.	.	.	.	.	.	.	.	.	.	.	.	.	.
.	.	8c\L	.	8e-/L	.	16cc\LL	.	.	.	.	.	.	.	.	.	.	.	.	.	.	.	.	.
.	.	.	.	.	.	16ccc\JJ	.	.	.	.	.	.	.	.	.	.	.	.	.	.	.	.	.
.	.	8c\	.	8e-/	.	4ccc\	.	.	.	.	.	.	.	.	.	.	.	.	.	.	.	.	.
.	.	8c\	.	8e-/	.	.	.	.	.	.	.	.	.	.	.	.	.	.	.	.	.	.	.
.	.	8c\J	.	8e-/J	.	8gg\	.	.	.	.	.	.	.	.	.	.	.	.	.	.	.	.	.
*	*	*Xtremolo	*	*	*	*	*	*	*	*	*	*	*	*	*	*	*	*	*	*	*	*	*
=2	=2	=2	=2	=2	=2	=2	=2	=2	=2	=2	=2	=2	=2	=2	=2	=2	=2	=2	=2	=2	=2	=2	=2
!	!	!	!	!	!	!LO:TX:a:t=P:problem=w źródle ta nuta albo 8gg [przednutka]	!	!	!	!	!	!	!	!	!	!	!	!	!	!	!	!	!
.	.	.	.	.	.	8qqbb-/	.	.	.	.	.	.	.	.	.	.	.	.	.	.	.	.	.
.	.	8c\L	.	8f/L	.	16aa-\LL	.	.	.	.	.	.	.	.	.	.	.	.	.	.	.	.	1ryy
.	.	.	.	.	.	32gg\L	.	.	.	.	.	.	.	.	.	.	.	.	.	.	.	.	.
.	.	.	.	.	.	32aa-\JJ	.	.	.	.	.	.	.	.	.	.	.	.	.	.	.	.	.
.	.	8c\	.	8e-/	.	8gg\J	.	.	.	.	.	.	.	.	.	.	.	.	.	.	.	.	.
.	.	8c\	.	8e-/	.	16r	.	.	.	.	.	.	.	.	.	.	.	.	.	.	.	.	.
.	.	.	.	.	.	16gg\LL	.	.	.	.	.	.	.	.	.	.	.	.	.	.	.	.	.
.	.	8c\J	.	8e-/J	.	16gg\	.	.	.	.	.	.	.	.	.	.	.	.	.	.	.	.	.
.	.	.	.	.	.	16gg\JJ	.	.	.	.	.	.	.	.	.	.	.	.	.	.	.	.	.
.	.	8c\L	.	8d/L	.	16gg\LL	.	.	.	.	.	.	.	.	.	.	.	.	.	.	.	.	.
.	.	.	.	.	.	16ff\JJ	.	.	.	.	.	.	.	.	.	.	.	.	.	.	.	.	.
.	.	8c\	.	8d/	.	4ff\	.	.	.	.	.	.	.	.	.	.	.	.	.	.	.	.	.
.	.	8Bn\	.	8d/	.	.	.	.	.	.	.	.	.	.	.	.	.	.	.	.	.	.	.
.	.	8B\J	.	8d/J	.	16gg\LL	.	.	.	.	.	.	.	.	.	.	.	.	.	.	.	.	.
.	.	.	.	.	.	16ff\JJ	.	.	.	.	.	.	.	.	.	.	.	.	.	.	.	.	.
=3	=3	=3	=3	=3	=3	=3	=3	=3	=3	=3	=3	=3	=3	=3	=3	=3	=3	=3	=3	=3	=3	=3	=3
1r	.	8c\L	.	8e-/L	.	(16ff\LL	.	.	.	.	.	.	.	.	.	.	.	.	.	.	.	.	1ryy
.	.	.	.	.	.	16ee-\)	.	.	.	.	.	.	.	.	.	.	.	.	.	.	.	.	.
.	.	8c\	.	8e-/	.	(16dd\	.	.	.	.	.	.	.	.	.	.	.	.	.	.	.	.	.
.	.	.	.	.	.	16cc\JJ)	.	.	.	.	.	.	.	.	.	.	.	.	.	.	.	.	.
.	.	8c\	.	8e-/	.	16r	.	.	.	.	.	.	.	.	.	.	.	.	.	.	.	.	.
.	.	.	.	.	.	32ee-\LLL	.	.	.	.	.	.	.	.	.	.	.	.	.	.	.	.	.
.	.	.	.	.	.	32dd\JJJ	.	.	.	.	.	.	.	.	.	.	.	.	.	.	.	.	.
.	.	8c\J	.	8e-/J	.	32ff\LLL	.	.	.	.	.	.	.	.	.	.	.	.	.	.	.	.	.
.	.	.	.	.	.	32ee-\	.	.	.	.	.	.	.	.	.	.	.	.	.	.	.	.	.
.	.	.	.	.	.	32dd\	.	.	.	.	.	.	.	.	.	.	.	.	.	.	.	.	.
.	.	.	.	.	.	32cc\JJJ	.	.	.	.	.	.	.	.	.	.	.	.	.	.	.	.	.
.	.	8Bn/L	.	8d/L	.	16bn|>\LL	.	.	.	.	.	.	.	.	.	.	.	.	.	.	.	.	.
.	.	.	.	.	.	16gg|>\	.	.	.	.	.	.	.	.	.	.	.	.	.	.	.	.	.
.	.	8G/J	.	8Bn/J	.	(16dd\	.	.	.	.	.	.	.	.	.	.	.	.	.	.	.	.	.
.	.	.	.	.	.	16ff\JJ)	.	.	.	.	.	.	.	.	.	.	.	.	.	.	.	.	.
.	.	8G/L	.	(16c/LL	.	(16ee-\LL	.	.	.	.	.	.	.	.	.	.	.	.	.	.	.	.	.
.	.	.	.	16e-/)	.	16cc\)	.	.	.	.	.	.	.	.	.	.	.	.	.	.	.	.	.
.	.	8G/J	.	16e-|</	.	16cc|>\	.	.	.	.	.	.	.	.	.	.	.	.	.	.	.	.	.
.	.	.	.	16e-|</JJ	.	16cc|>\JJ	.	.	.	.	.	.	.	.	.	.	.	.	.	.	.	.	.
=4	=4	=4	=4	=4	=4	=4	=4	=4	=4	=4	=4	=4	=4	=4	=4	=4	=4	=4	=4	=4	=4	=4	=4
*2\right	*	*	*	*	*	*	*	*	*	*	*	*	*	*	*	*	*	*	*	*	*	*	*
2r	.	8G/L	.	8d/L	.	8bn/L	.	.	.	.	.	.	.	.	.	.	.	.	.	.	.	.	1ryy
!	!	!	!	!	!	!LO:TX:t=P:problem=niejednoznaczny zapis łuku	!	!	!	!	!	!	!	!	!	!	!	!	!	!	!	!	!
.	.	8G/	.	8Bn/	.	(32g/LL	.	.	.	.	.	.	.	.	.	.	.	.	.	.	.	.	.
.	.	.	.	.	.	32an/	.	.	.	.	.	.	.	.	.	.	.	.	.	.	.	.	.
.	.	.	.	.	.	32b/	.	.	.	.	.	.	.	.	.	.	.	.	.	.	.	.	.
.	.	.	.	.	.	32a/JJJ)	.	.	.	.	.	.	.	.	.	.	.	.	.	.	.	.	.
.	.	8G/	.	8B/	.	8g/L	.	.	.	.	.	.	.	.	.	.	.	.	.	.	.	.	.
.	.	8G/J	.	8B/J	.	8g/J	.	.	.	.	.	.	.	.	.	.	.	.	.	.	.	.	.
!LO:TX:a:Bi:t=T&colon;	!	!	!	!	!	!	!	!	!	!	!	!	!	!	!	!	!	!	!	!	!	!	!
4r	.	4G/	.	4B/	.	4g/	.	.	.	.	.	.	.	.	.	.	.	.	.	.	.	.	.
!	!	!LO:TX:t=P:f = for:global:problem	!	!	!	!	!	!	!	!	!	!	!	!	!	!	!	!	!	!	!	!	!
16G|>\LL	.	16g|>\LL	f	4r	.	4r	.	.	.	.	.	.	.	.	.	.	.	.	.	.	.	.	.
16F|>\	.	16f|>\	.	.	.	.	.	.	.	.	.	.	.	.	.	.	.	.	.	.	.	.	.
16E-|>\	.	16e-|>\	.	.	.	.	.	.	.	.	.	.	.	.	.	.	.	.	.	.	.	.	.
16D|>\JJ	.	16d|>\JJ	.	.	.	.	.	.	.	.	.	.	.	.	.	.	.	.	.	.	.	.	.
=5	=5	=5	=5	=5	=5	=5	=5	=5	=5	=5	=5	=5	=5	=5	=5	=5	=5	=5	=5	=5	=5	=5	=5
*	*	*	*	*	*	*	*	*2\right	*	*2\right	*	*2\right	*	*2\right	*	*	*2\right	*	*2\right	*	*2\right	*	*
*tremolo	*	*	*	*	*	*	*	*	*	*	*	*	*	*	*	*	*	*	*	*	*	*	*
!	!	!	!	!LO:TX:a:Bi:t=T.	!	!LO:TX:a:Bi:t=T.	!	!LO:TX:a:Bi:t=T.	!	!LO:TX:a:Bi:t=T&colon;	!	!LO:TX:a:Bi:t=T&colon;	!	!LO:TX:a:Bi:t=T&colon;	!	!	!	!LO:DY:a	!LO:TX:a:t=in dis	!	!LO:TX:a:Bi:t=Tutti.	!	!
8C/L	.	8c\L	.	8g/L	.	16r	.	4.c\	A-	4.c\	A-	4.g\	A-	4.ee-\	A-	.	2G/	f	2g\	.	2cc\	.	1ryy
.	.	.	.	.	.	(16g/LL	.	.	.	.	.	.	.	.	.	.	.	.	.	.	.	.	.
8C/	.	8e-\	.	8g/	.	16cc/)	.	.	.	.	.	.	.	.	.	.	.	.	.	.	.	.	.
.	.	.	.	.	.	16cc|</JJ	.	.	.	.	.	.	.	.	.	.	.	.	.	.	.	.	.
8C/	.	8e-\	.	8g/	.	(16cc\LL	.	.	.	.	.	.	.	.	.	.	.	.	.	.	.	.	.
.	.	.	.	.	.	16ee-\)	.	.	.	.	.	.	.	.	.	.	.	.	.	.	.	.	.
8C/J	.	8e-\J	.	8g/J	.	16ee-|>\	.	8c\	-gnus	8c\	-gnus	8g\	-gnus	8ee-\	-gnus	.	.	.	.	.	.	.	.
.	.	.	.	.	.	16ee-|>\JJ	.	.	.	.	.	.	.	.	.	.	.	.	.	.	.	.	.
*	*	*tremolo	*	*	*	*	*	*	*	*	*	*	*	*	*	*	*	*	*	*	*	*	*
8BBn/L	.	8d\L	.	8g/L	.	(16dd/LL	.	4Bn\	De-	4d\	De-	4g\	De-	4dd\	De-	.	2G/	.	2g\	.	2g/	.	.
.	.	.	.	.	.	16g/)	.	.	.	.	.	.	.	.	.	.	.	.	.	.	.	.	.
8BB/	.	8d\	.	8g/	.	16g|</	.	.	.	.	.	.	.	.	.	.	.	.	.	.	.	.	.
.	.	.	.	.	.	16g|</JJ	.	.	.	.	.	.	.	.	.	.	.	.	.	.	.	.	.
8BB/	.	8d\	.	8g/	.	(16g\LL	.	8B\	-i	8Bn\	-i	8g\	-i	8dd\	-i	.	.	.	.	.	.	.	.
.	.	.	.	.	.	16bn\)	.	.	.	.	.	.	.	.	.	.	.	.	.	.	.	.	.
8BB/J	.	8d\J	.	8g/J	.	16dd|>\	.	8B\	qui	8d\	qui	8g\	qui	8dd\	qui	.	.	.	.	.	.	.	.
.	.	.	.	.	.	16ff|>\JJ	.	.	.	.	.	.	.	.	.	.	.	.	.	.	.	.	.
*	*	*Xtremolo	*	*	*	*	*	*	*	*	*	*	*	*	*	*	*	*	*	*	*	*	*
=6	=6	=6	=6	=6	=6	=6	=6	=6	=6	=6	=6	=6	=6	=6	=6	=6	=6	=6	=6	=6	=6	=6	=6
8C/L	.	8e-\L	.	8g/L	.	(16ee-\LL	.	4c\	tol-	4c\	tol-	4g\	tol-	4ee-\	tol-	.	2G/	.	2g\	.	2cc\	.	1ryy
.	.	.	.	.	.	16gg\)	.	.	.	.	.	.	.	.	.	.	.	.	.	.	.	.	.
8C/	.	8e-\	.	8g/	.	16cc|>\	.	.	.	.	.	.	.	.	.	.	.	.	.	.	.	.	.
.	.	.	.	.	.	16cc|>\JJ	.	.	.	.	.	.	.	.	.	.	.	.	.	.	.	.	.
8C/	.	8e-\	.	8g/	.	(16cc\LL	.	8c\	-lis	8c\	-lis	8g\	-lis	8ee-\	-lis	.	.	.	.	.	.	.	.
.	.	.	.	.	.	16ee-\)	.	.	.	.	.	.	.	.	.	.	.	.	.	.	.	.	.
*	*	*	*	*	*	*	*	*	*	*	*ij	*	*	*	*	*	*	*	*	*	*	*	*
8C/J	.	8e-\J	.	8g/J	.	16ee-|>\	.	8C/	pec-	8c\	qui	8g\	pec-	8ee-\	pec-	.	.	.	.	.	.	.	.
.	.	.	.	.	.	16ee-|>\JJ	.	.	.	.	.	.	.	.	.	.	.	.	.	.	.	.	.
*Xtremolo	*	*	*	*	*	*	*	*	*	*	*	*	*	*	*	*	*	*	*	*	*	*	*
8BBn/L	.	8d\L	.	8g/L	.	(16dd\LL	.	8BBn/L	-ca-	8d\L	tol-	4g\	-ca-	8dd\L	-ca-	.	8G/L	.	8g\L	.	8dd\L	.	.
.	.	.	.	.	.	16ff\)	.	.	.	.	.	.	.	.	.	.	.	.	.	.	.	.	.
8C/	.	8c\	.	8g/	.	(16ee-\	.	8C/J	.	8c\J	.	.	.	8ee-\J	.	.	8G/	.	8g\	.	8cc\	.	.
.	.	.	.	.	.	16gg\JJ)	.	.	.	.	.	.	.	.	.	.	.	.	.	.	.	.	.
8D/	.	8d\	.	8g/	.	(16bn\LL	.	8D\	-ta	8Bn\	-lis	4g\	-ta	8bn\	-ta	.	8G/	.	8g\	.	8bX\	.	.
.	.	.	.	.	.	16dd\)	.	.	.	.	.	.	.	.	.	.	.	.	.	.	.	.	.
*	*	*	*	*	*	*	*	*	*	*	*Xij	*	*	*	*	*	*	*	*	*	*	*	*
!	!	!	!	!	!	!	!	!	!	!LO:TX:a:t=c	!	!	!	!	!	!	!	!	!	!	!	!	!
8E-/J	.	8e-\J	.	8g/J	.	(16cc\	.	8E-\	pec-	8c\	pec-	.	.	8cc\	pec-	.	8G/J	.	8g\J	.	8cc\J	.	.
.	.	.	.	.	.	16ee-\JJ)	.	.	.	.	.	.	.	.	.	.	.	.	.	.	.	.	.
=7	=7	=7	=7	=7	=7	=7	=7	=7	=7	=7	=7	=7	=7	=7	=7	=7	=7	=7	=7	=7	=7	=7	=7
!LO:TX:t=P:problem=mixed beam	!	!	!	!	!	!	!	!	!	!	!	!	!	!	!	!	!	!	!	!	!	!	!
8G\L	.	8Bn\L	.	8g/L	.	(16dd\LL	.	8BBn/	-ca-	8d\	-ca-	2g\	mun-	8dd\	-ca-	.	8G/L	.	8g\L	.	8dd\L	.	1ryy
.	.	.	.	.	.	16ff\)	.	.	.	.	.	.	.	.	.	.	.	.	.	.	.	.	.
8C/	.	8c\	.	8g/	.	(16ee-\	.	8C/	-ta	8c\	-ta	.	.	8ee-\	-ta	.	8G/	.	8g\	.	8cc\	.	.
.	.	.	.	.	.	16gg\JJ)	.	.	.	.	.	.	.	.	.	.	.	.	.	.	.	.	.
8BBn/	.	8d\	.	8g/	.	(16ff\LL	.	8BBn/L	mun-	8d\L	mun-	.	.	8ff\L	mun-	.	8G/	.	8g\	.	8dd\	.	.
.	.	.	.	.	.	16dd\)	.	.	.	.	.	.	.	.	.	.	.	.	.	.	.	.	.
8C/J	.	8c\J	.	8g/J	.	(16ee-\	.	8C/J	.	8c\J	.	.	.	8ee-\J	.	.	8G/J	.	8g\J	.	8cc\J	.	.
.	.	.	.	.	.	16cc\JJ)	.	.	.	.	.	.	.	.	.	.	.	.	.	.	.	.	.
!	!	!	!	!	!	!LO:TX:t=P:problem=mixed beam	!	!	!	!	!	!	!	!	!	!	!	!	!	!	!	!	!
8G\L	.	8B\L	.	8g/L	.	16bn\LL	.	4G\	-di	4Bn\	-di	4g\	-di	4dd\	-di	.	8G/L	.	8g\L	.	8bX\L	.	.
.	.	.	.	.	.	16dd\	.	.	.	.	.	.	.	.	.	.	.	.	.	.	.	.	.
8G\J	.	8B\J	.	8g/J	.	16gg\	.	.	.	.	.	.	.	.	.	.	8G/J	.	8g\J	.	8b\J	.	.
.	.	.	.	.	.	16g\JJ	.	.	.	.	.	.	.	.	.	.	.	.	.	.	.	.	.
4GG/	.	4B\	.	4G/	.	4G/	.	4r	.	4r	.	4r	.	4r	.	.	4G/	.	4g\	.	4b\	.	.
=8	=8	=8	=8	=8	=8	=8	=8	=8	=8	=8	=8	=8	=8	=8	=8	=8	=8	=8	=8	=8	=8	=8	=8
*	*	*	*	*	*	*^	*	*	*	*	*	*	*	*	*	*	*	*	*	*	*	*	*
*	*	*	*	*	*	*tremolo	*	*	*	*	*	*	*	*	*	*	*	*	*	*	*	*	*	*
!	!	!	!	!	!	!	!	!	!	!	!	!	!	!	!	!	!	!LO:TX:a:t=1	!	!	!	!	!	!
8C\L	.	8c\L	f	16en/KL	.	16cc/KL	8g\L	.	4.En\	mi-	4.B-X\	mi-	4.g\	mi-	4.cc\	mi-	.	1r	.	1r	.	2eeX\	.	1ryy
.	.	.	.	8e/	.	8cc/	.	.	.	.	.	.	.	.	.	.	.	.	.	.	.	.	.	.
8En\	.	8en\	.	.	.	.	8g\	.	.	.	.	.	.	.	.	.	.	.	.	.	.	.	.	.
.	.	.	.	8e/	.	8cc/	.	.	.	.	.	.	.	.	.	.	.	.	.	.	.	.	.	.
8G\	.	8g\	.	.	.	.	8g\	.	.	.	.	.	.	.	.	.	.	.	.	.	.	.	.	.
.	.	.	.	8e/	.	8cc/	.	.	.	.	.	.	.	.	.	.	.	.	.	.	.	.	.	.
8E\J	.	8e\J	.	.	.	.	8g\J	.	8E\	-se-	8B-\	-se-	8g\	-se-	8cc\	-se-	.	.	.	.	.	.	.	.
.	.	.	.	16e/Jk	.	16cc/Jk	.	.	.	.	.	.	.	.	.	.	.	.	.	.	.	.	.	.
8C\L	.	8c\L	.	16f/KL	.	16cc/KL	8a-\L	.	4F\	-re-	4A-\	-re-	4a-\	-re-	4cc\	-re-	.	.	.	.	.	2ff\	.	.
.	.	.	.	8f/	.	8cc/	.	.	.	.	.	.	.	.	.	.	.	.	.	.	.	.	.	.
8F\	.	8f\	.	.	.	.	8a-\	.	.	.	.	.	.	.	.	.	.	.	.	.	.	.	.	.
.	.	.	.	8f/	.	8cc/	.	.	.	.	.	.	.	.	.	.	.	.	.	.	.	.	.	.
8A-\	.	8a-\	.	.	.	.	8a-\	.	4F\	-re	4c\	-re	4a-\	-re	4cc\	-re	.	.	.	.	.	.	.	.
.	.	.	.	8f/	.	8cc/	.	.	.	.	.	.	.	.	.	.	.	.	.	.	.	.	.	.
8F\J	.	8f\J	.	.	.	.	8a-\J	.	.	.	.	.	.	.	.	.	.	.	.	.	.	.	.	.
.	.	.	.	16f/Jk	.	16cc/Jk	.	.	.	.	.	.	.	.	.	.	.	.	.	.	.	.	.	.
=9	=9	=9	=9	=9	=9	=9	=9	=9	=9	=9	=9	=9	=9	=9	=9	=9	=9	=9	=9	=9	=9	=9	=9	=9
*	*	*	*	*	*	*	*	*	*	*ij	*	*ij	*	*ij	*	*ij	*	*	*	*	*	*	*	*
8BB-\L	.	8B-\L	.	16d/KL	.	16b-/KL	8g\L	.	4.D\	mi-	4.f\	mi-	4.a-\	mi-	4.b-X\	mi-	.	2B-/	.	2f\	.	2dd\	.	1ryy
.	.	.	.	8d/	.	8b-/	.	.	.	.	.	.	.	.	.	.	.	.	.	.	.	.	.	.
8D\	.	8d\	.	.	.	.	8g\	.	.	.	.	.	.	.	.	.	.	.	.	.	.	.	.	.
.	.	.	.	8d/	.	8b-/	.	.	.	.	.	.	.	.	.	.	.	.	.	.	.	.	.	.
8F\	.	8f\	.	.	.	.	8g\	.	.	.	.	.	.	.	.	.	.	.	.	.	.	.	.	.
.	.	.	.	8d/	.	8b-/	.	.	.	.	.	.	.	.	.	.	.	.	.	.	.	.	.	.
8D\J	.	8d\J	.	.	.	.	8g\J	.	8D\	-se-	8f\	-se-	8a-\	-se-	8b-\	-se-	.	.	.	.	.	.	.	.
.	.	.	.	16d/Jk	.	16b-/Jk	.	.	.	.	.	.	.	.	.	.	.	.	.	.	.	.	.	.
8BB-\L	.	8B-\L	.	16e-X/KL	.	16b-/KL	8g\L	.	4E-X\	-re-	4e-\	-re-	4g\	-re-	4b-\	-re-	.	2e-\	.	2g\	.	2ee-\	.	.
.	.	.	.	8e-/	.	8b-/	.	.	.	.	.	.	.	.	.	.	.	.	.	.	.	.	.	.
8E-\	.	8e-\	.	.	.	.	8g\	.	.	.	.	.	.	.	.	.	.	.	.	.	.	.	.	.
.	.	.	.	8e-/	.	8b-/	.	.	.	.	.	.	.	.	.	.	.	.	.	.	.	.	.	.
8G\	.	8g\	.	.	.	.	8g\	.	4E-\	-re	4e-\	-re	4g\	-re	4b-\	-re	.	.	.	.	.	.	.	.
.	.	.	.	8e-/	.	8b-/	.	.	.	.	.	.	.	.	.	.	.	.	.	.	.	.	.	.
8E-\J	.	8e-\J	.	.	.	.	8g\J	.	.	.	.	.	.	.	.	.	.	.	.	.	.	.	.	.
.	.	.	.	16e-/Jk	.	16b-/Jk	.	.	.	.	.	.	.	.	.	.	.	.	.	.	.	.	.	.
=10	=10	=10	=10	=10	=10	=10	=10	=10	=10	=10	=10	=10	=10	=10	=10	=10	=10	=10	=10	=10	=10	=10	=10	=10
8A-\L	.	8A-X/L	.	16fKL 16c/	.	16ee-/KL	8f\L	.	4A-\	mi-	4.e-\	mi-	4.f\	mi-	4.cc\	mi-	.	4f\	.	4f\	.	2ee-\	.	1ryy
.	.	.	.	8f 8c/	.	8ee-/	.	.	.	.	.	.	.	.	.	.	.	.	.	.	.	.	.	.
8A-\	.	8A-/	.	.	.	.	8f\	.	.	.	.	.	.	.	.	.	.	.	.	.	.	.	.	.
.	.	.	.	8f 8c/	.	8ee-/	.	.	.	.	.	.	.	.	.	.	.	.	.	.	.	.	.	.
8An\	.	8An/	.	.	.	.	8f\	.	4An\	-se-	.	.	.	.	.	.	.	4r	.	4r	.	.	.	.
.	.	.	.	8f 8c/	.	8ee-/	.	.	.	.	.	.	.	.	.	.	.	.	.	.	.	.	.	.
8A\J	.	8A/J	.	.	.	.	8f\J	.	.	.	8e-\	-se-	8f\	-se-	8cc\	-se-	.	.	.	.	.	.	.	.
.	.	.	.	16fJk 16c/	.	16ee-/Jk	.	.	.	.	.	.	.	.	.	.	.	.	.	.	.	.	.	.
*	*	*	*	*	*	*	*Xtremolo	*	*	*	*	*	*	*	*	*	*	*	*	*	*	*	*	*
*tremolo	*	*	*	*	*	*	*	*	*	*	*	*	*	*	*	*	*	*	*	*	*	*	*	*
8B-\L	.	8B-\L	.	8g/L	.	(16ee-\LL	2ryy	.	4B-\	-re-	4B-\	-re-	4g\	-re-	4ee-\	-re-	.	2e-\	.	2g\	.	2ee-\	.	.
.	.	.	.	.	.	16gg\JJ)	.	.	.	.	.	.	.	.	.	.	.	.	.	.	.	.	.	.
8B-\	.	8e-\	.	8g/	.	16r	.	.	.	.	.	.	.	.	.	.	.	.	.	.	.	.	.	.
.	.	.	.	.	.	16gg\	.	.	.	.	.	.	.	.	.	.	.	.	.	.	.	.	.	.
8B-\	.	8e-\	.	8g/	.	(16gg\LL	.	.	4B-\	-re	4B-\	-re	4g\	-re	4ee-\	-re	.	.	.	.	.	.	.	.
.	.	.	.	.	.	16bb-\)	.	.	.	.	.	.	.	.	.	.	.	.	.	.	.	.	.	.
8B-\J	.	8e-\J	.	8g/J	.	16ee-\	.	.	.	.	.	.	.	.	.	.	.	.	.	.	.	.	.	.
.	.	.	.	.	.	16ee-\JJ	.	.	.	.	.	.	.	.	.	.	.	.	.	.	.	.	.	.
*	*	*	*	*	*	*	*	*	*	*Xij	*	*Xij	*	*Xij	*	*Xij	*	*	*	*	*	*	*	*
*	*	*	*	*	*	*v	*v	*	*	*	*	*	*	*	*	*	*	*	*	*	*	*	*	*
=11	=11	=11	=11	=11	=11	=11	=11	=11	=11	=11	=11	=11	=11	=11	=11	=11	=11	=11	=11	=11	=11	=11	=11
8BB-/L	.	8d\L	.	8a-/L	.	(16dd\LL	.	2BB-/	no-	2B-\	no-	2f\	no-	2dd\	no-	.	2B-/	.	2f\	.	2ff\	.	1ryy
.	.	.	.	.	.	16ff\JJ)	.	.	.	.	.	.	.	.	.	.	.	.	.	.	.	.	.
8BB-/	.	8d\	.	8a-/	.	16r	.	.	.	.	.	.	.	.	.	.	.	.	.	.	.	.	.
.	.	.	.	.	.	16ff\	.	.	.	.	.	.	.	.	.	.	.	.	.	.	.	.	.
8BB-/	.	8d\	.	8a-/	.	(16ff\LL	.	.	.	.	.	.	.	.	.	.	.	.	.	.	.	.	.
.	.	.	.	.	.	16aa-\)	.	.	.	.	.	.	.	.	.	.	.	.	.	.	.	.	.
8BB-/J	.	8d\J	.	8a-/J	.	16dd\	.	.	.	.	.	.	.	.	.	.	.	.	.	.	.	.	.
.	.	.	.	.	.	16dd\JJ	.	.	.	.	.	.	.	.	.	.	.	.	.	.	.	.	.
*Xtremolo	*	*	*	*	*	*	*	*	*	*	*	*	*	*	*	*	*	*	*	*	*	*	*
!	!	!LO:TX:t=P:problem=mixed beam	!	!	!	!LO:TX:t=P:problem=mixed beam	!	!	!	!	!	!	!	!	!	!	!	!	!	!	!	!	!
8E-\L	.	8e-\L	.	8g/L	.	8ee-\L	.	4E-\	-bis	4B-\	-bis	4g\	-bis	4ee-\	-bis	.	4e-\	.	4g\	.	4ee-\	.	.
8E-\	.	8E-/	.	8e-/	.	8e-/J	.	.	.	.	.	.	.	.	.	.	.	.	.	.	.	.	.
8E-\J	.	8E-/J	.	8e-/J	.	16e-/LL	.	4r	.	4r	.	4r	.	4r	.	.	4r	.	4r	.	4r	.	.
.	.	.	.	.	.	16b-/	.	.	.	.	.	.	.	.	.	.	.	.	.	.	.	.	.
8r	.	8r	.	8r	.	16ee-/	.	.	.	.	.	.	.	.	.	.	.	.	.	.	.	.	.
.	.	.	.	.	.	16gg/JJ	.	.	.	.	.	.	.	.	.	.	.	.	.	.	.	.	.
=12	=12	=12	=12	=12	=12	=12	=12	=12	=12	=12	=12	=12	=12	=12	=12	=12	=12	=12	=12	=12	=12	=12	=12
!	!LO:DY:a	!	!LO:DY:a	!	!LO:DY:a	!	!	!	!	!	!	!	!	!	!	!	!	!	!	!	!LO:TX:a:t=1.	!	!
8E-\	p	16r	p	16r	p	2bb-\	p	1r	.	1r	.	1r	.	1r	.	.	1r	.	1r	.	1r	.	1ryy
!	!	!LO:TX:t=P:problem=mixed beam	!	!	!	!	!	!	!	!	!	!	!	!	!	!	!	!	!	!	!	!	!
.	.	16G/LL	.	16e-/LL	.	.	.	.	.	.	.	.	.	.	.	.	.	.	.	.	.	.	.
8r	.	16G/	.	(16e-/	.	.	.	.	.	.	.	.	.	.	.	.	.	.	.	.	.	.	.
.	.	16e-\JJ	.	16g/JJ)	.	.	.	.	.	.	.	.	.	.	.	.	.	.	.	.	.	.	.
8BB-/	.	16d\LL	.	16f/LL	.	.	.	.	.	.	.	.	.	.	.	.	.	.	.	.	.	.	.
.	.	16d\	.	16f/	.	.	.	.	.	.	.	.	.	.	.	.	.	.	.	.	.	.	.
8r	.	16d\	.	(16f/	.	.	.	.	.	.	.	.	.	.	.	.	.	.	.	.	.	.	.
.	.	16f\JJ	.	16a-/JJ)	.	.	.	.	.	.	.	.	.	.	.	.	.	.	.	.	.	.	.
!	!	!LO:TX:t=P:problem=mixed beam	!	!	!	!	!	!	!	!	!	!	!	!	!	!	!	!	!	!	!	!	!
8E-\	.	16e-\LL	.	16g/LL	.	[2bb-\	.	.	.	.	.	.	.	.	.	.	.	.	.	.	.	.	.
.	.	16e-\	.	16g/	.	.	.	.	.	.	.	.	.	.	.	.	.	.	.	.	.	.	.
8r	.	16e-\	.	(16g/	.	.	.	.	.	.	.	.	.	.	.	.	.	.	.	.	.	.	.
.	.	16G/JJ	.	16e-/JJ)	.	.	.	.	.	.	.	.	.	.	.	.	.	.	.	.	.	.	.
8BB-/	.	16A-/LL	.	16f/LL	.	.	.	.	.	.	.	.	.	.	.	.	.	.	.	.	.	.	.
.	.	16A-/	.	16f/	.	.	.	.	.	.	.	.	.	.	.	.	.	.	.	.	.	.	.
8r	.	16A-/	.	(16f/	.	.	.	.	.	.	.	.	.	.	.	.	.	.	.	.	.	.	.
.	.	16F/JJ	.	16d/JJ)	.	.	.	.	.	.	.	.	.	.	.	.	.	.	.	.	.	.	.
=13	=13	=13	=13	=13	=13	=13	=13	=13	=13	=13	=13	=13	=13	=13	=13	=13	=13	=13	=13	=13	=13	=13	=13
!	!	!	!	!	!	!	!	!	!	!	!	!	!	!	!	!	!LO:TX:t=P:problem=tremolo dopisane ołówkiem w t. 13	!	!	!	!LO:TX:t=P:problem=mixed beam	!	!
!	!	!	!	!	!	!	!	!	!	!	!	!	!	!	!	!	!LO:TX:t=P:problem=mixed beam	!LO:DY:a	!	!LO:DY:a	!LO:TX:b:Bi:t=Solo.	!LO:DY:a	!
8E-\	.	8G/	.	8e-/	.	1bb-_	.	1r	.	1r	.	1r	.	1r	.	.	8G/L	p	8e-\L	p	16g\LL	p	1ryy
.	.	.	.	.	.	.	.	.	.	.	.	.	.	.	.	.	.	.	.	.	16g\	.	.
8r	.	8r	.	8r	.	.	.	.	.	.	.	.	.	.	.	.	16G/L	.	16e-\L	.	16g\	.	.
.	.	.	.	.	.	.	.	.	.	.	.	.	.	.	.	.	16e-/JJ	.	16g\JJ	.	16ee-\JJ	.	.
8BB-/	.	8B-/	.	8d/	.	.	.	.	.	.	.	.	.	.	.	.	8B-\L	.	8f\L	.	16dd\LL	.	.
.	.	.	.	.	.	.	.	.	.	.	.	.	.	.	.	.	.	.	.	.	16dd\	.	.
!	!	!	!	!	!	!	!	!	!	!	!	!	!	!	!	!	!	!	!	!	!LO:TX:t=P:problem=16\right	!	!
8r	.	8r	.	8r	.	.	.	.	.	.	.	.	.	.	.	.	16B-\L	.	16f\L	.	16dd\	.	.
.	.	.	.	.	.	.	.	.	.	.	.	.	.	.	.	.	16f\JJ	.	16a-\JJ	.	16ff\JJ	.	.
8E-\	.	8e-\	.	8e-/	.	.	.	.	.	.	.	.	.	.	.	.	8e-\L	.	8g\L	.	16ee-\LL	.	.
!	!	!	!	!	!	!	!	!	!	!	!	!	!	!	!	!	!	!	!	!	!LO:TX:t=P:problem=16\right	!	!
.	.	.	.	.	.	.	.	.	.	.	.	.	.	.	.	.	.	.	.	.	16ee-\	.	.
!	!	!	!	!	!	!	!	!	!	!	!	!	!	!	!	!	!	!	!	!	!LO:TX:t=P:problem=16\right	!	!
8r	.	8r	.	8r	.	.	.	.	.	.	.	.	.	.	.	.	16e-\L	.	16g\L	.	16ee-\	.	.
.	.	.	.	.	.	.	.	.	.	.	.	.	.	.	.	.	16g\JJ	.	16b-\JJ	.	16gg\JJ	.	.
!	!	!	!	!	!	!	!	!	!	!	!	!	!	!	!	!	!LO:TX:t=P:problem=mixed beam	!	!	!	!	!	!
8BB-/	.	8B-\	.	8d/	.	.	.	.	.	.	.	.	.	.	.	.	8f\L	.	8a-\L	.	8ff\L	.	.
8r	.	8r	.	8r	.	.	.	.	.	.	.	.	.	.	.	.	8B-/J	.	8f\J	.	8dd\J	.	.
=14	=14	=14	=14	=14	=14	=14	=14	=14	=14	=14	=14	=14	=14	=14	=14	=14	=14	=14	=14	=14	=14	=14	=14
8E-\L	.	8e-\L	.	8e-/L	.	16bb-\LL]	.	1r	.	1r	.	1r	.	1r	.	.	8e-\	.	8g\	.	8ee-\	.	1ryy
.	.	.	.	.	.	16gg\	.	.	.	.	.	.	.	.	.	.	.	.	.	.	.	.	.
8G\	.	8B-\	.	8e-/	.	16ff\	.	.	.	.	.	.	.	.	.	.	8r	.	8r	.	8r	.	.
.	.	.	.	.	.	16ee-\JJ	.	.	.	.	.	.	.	.	.	.	.	.	.	.	.	.	.
8A-\	.	8c\	.	8e-/	.	16dd\LL	.	.	.	.	.	.	.	.	.	.	4r	.	4r	.	4r	.	.
.	.	.	.	.	.	16cc\	.	.	.	.	.	.	.	.	.	.	.	.	.	.	.	.	.
8A-\J	.	8c\J	.	8c/J	.	16aa-\	.	.	.	.	.	.	.	.	.	.	.	.	.	.	.	.	.
.	.	.	.	.	.	16ff\JJ	.	.	.	.	.	.	.	.	.	.	.	.	.	.	.	.	.
!LO:TX:t=P:problem=mixed beam	!	!	!LO:DY:a	!	!	!	!	!	!	!	!	!	!	!	!	!	!	!	!	!	!	!	!
8B-\L	.	8B-\L	f	8g/L	.	8ee-\L	.	.	.	.	.	.	.	.	.	.	2r	.	2r	.	2r	.	.
8BB-/J	.	8B-\J	.	8f/	.	8dd\	.	.	.	.	.	.	.	.	.	.	.	.	.	.	.	.	.
16B-|>\LL	f	16b-\LL	.	8f/J	.	8b-\J	.	.	.	.	.	.	.	.	.	.	.	.	.	.	.	.	.
16A-|>\	.	16a-\	.	.	.	.	.	.	.	.	.	.	.	.	.	.	.	.	.	.	.	.	.
16G|>\	.	16g\	.	8r	.	8r	.	.	.	.	.	.	.	.	.	.	.	.	.	.	.	.	.
16F|>\JJ	.	16f\JJ	.	.	.	.	.	.	.	.	.	.	.	.	.	.	.	.	.	.	.	.	.
=15	=15	=15	=15	=15	=15	=15	=15	=15	=15	=15	=15	=15	=15	=15	=15	=15	=15	=15	=15	=15	=15	=15	=15
*	*	*	*	*^	*	*	*	*	*	*	*	*	*	*	*	*	*	*	*	*	*	*	*
*tremolo	*	*	*	*	*	*	*	*	*	*	*	*	*	*	*	*	*	*	*	*	*	*	*	*
!LO:TX:a:Bi:t=T&colon;	!	!	!	!	!	!LO:DY:a	!LO:TX:a:Bi:t=T.	!	!	!	!	!	!	!	!	!	!	!	!LO:DY:a	!	!	!LO:TX:t=P:f = for.:global:problem	!	!
8E-\L	.	8e-\L	.	8b-/L	8g\L	f	16r	.	4.E-\	A-	4.B-\	A-	4.g\	a-	4.ee-\	A-	.	2e-\	f	2g\	f	2ee-\	f	1ryy
.	.	.	.	.	.	.	(16b-\LL	.	.	.	.	.	.	.	.	.	.	.	.	.	.	.	.	.
8E-\	.	8B-\	.	8b-/	8g\	.	16ee-\)	.	.	.	.	.	.	.	.	.	.	.	.	.	.	.	.	.
.	.	.	.	.	.	.	16ee-|>\JJ	.	.	.	.	.	.	.	.	.	.	.	.	.	.	.	.	.
8E-\	.	8B-\	.	8b-/	8g\	.	(16ee-\LL	.	.	.	.	.	.	.	.	.	.	.	.	.	.	.	.	.
.	.	.	.	.	.	.	16gg\)	.	.	.	.	.	.	.	.	.	.	.	.	.	.	.	.	.
8E-\J	.	8B-\J	.	8b-/J	8g\J	.	16gg|>\	.	8E-\	-gnus	8B-\	-gnus	8g\	-gnus	8ee-\	-gnus	.	.	.	.	.	.	.	.
.	.	.	.	.	.	.	16gg|>\JJ	.	.	.	.	.	.	.	.	.	.	.	.	.	.	.	.	.
*	*	*tremolo	*	*	*	*	*	*	*	*	*	*	*	*	*	*	*	*	*	*	*	*	*	*
8D\L	.	8B-\L	.	8b-/L	8f\L	.	(16ff\LL	.	4D/	De-	4B-\	De-	4b-\	De-	4ff\	De-	.	2B-/	.	2f\	.	2b-\	.	.
.	.	.	.	.	.	.	16b-\)	.	.	.	.	.	.	.	.	.	.	.	.	.	.	.	.	.
8D\	.	8B-\	.	8b-/	8f\	.	16b-|>\	.	.	.	.	.	.	.	.	.	.	.	.	.	.	.	.	.
.	.	.	.	.	.	.	16b-|>\JJ	.	.	.	.	.	.	.	.	.	.	.	.	.	.	.	.	.
8D\	.	8B-\	.	8b-/	8f\	.	(16b-\LL	.	8D/	-i	8B-\	-i	8b-\	-i	8ff\	-i	.	.	.	.	.	.	.	.
.	.	.	.	.	.	.	16dd\)	.	.	.	.	.	.	.	.	.	.	.	.	.	.	.	.	.
8D\J	.	8B-\J	.	8b-/J	8f\J	.	16ff|>\	.	8D/	qui	8B-\	qui	8b-\	qui	8ff\	qui	.	.	.	.	.	.	.	.
.	.	.	.	.	.	.	16aa-|>\JJ	.	.	.	.	.	.	.	.	.	.	.	.	.	.	.	.	.
=16	=16	=16	=16	=16	=16	=16	=16	=16	=16	=16	=16	=16	=16	=16	=16	=16	=16	=16	=16	=16	=16	=16	=16	=16
8E-\L	.	8B-\L	.	8b-/L	8g\L	.	(16gg\LL	.	4E-\	tol-	4B-\	tol-	4g\	tol-	4ee-\	tol-	.	2e-\	.	2g\	.	2ee-\	.	1ryy
.	.	.	.	.	.	.	16bb-\)	.	.	.	.	.	.	.	.	.	.	.	.	.	.	.	.	.
8E-\	.	8B-\	.	8b-/	8g\	.	16ee-\	.	.	.	.	.	.	.	.	.	.	.	.	.	.	.	.	.
.	.	.	.	.	.	.	16ee-\JJ	.	.	.	.	.	.	.	.	.	.	.	.	.	.	.	.	.
8E-\	.	8B-\	.	8b-/	8g\	.	(16ee-\LL	.	8E-\	-lis	8B-\	-lis	8g\	-lis	8ee-\	-lis	.	.	.	.	.	.	.	.
.	.	.	.	.	.	.	16gg\)	.	.	.	.	.	.	.	.	.	.	.	.	.	.	.	.	.
8E-\J	.	8B-\J	.	8b-/J	8g\J	.	16gg\	.	8E-\	pec-	8B-\	pec-	8g\	pec-	8ee-\	pec-	.	.	.	.	.	.	.	.
.	.	.	.	.	.	.	16gg\JJ	.	.	.	.	.	.	.	.	.	.	.	.	.	.	.	.	.
*Xtremolo	*	*Xtremolo	*	*	*	*	*	*	*	*	*	*	*	*	*	*	*	*	*	*	*	*	*	*
8D\L	.	8B-\L	.	8b-/L	8f\L	.	(16ff\LL	.	4D\	-ca-	4B-\	-ca-	4f\	-ca-	4ff\	-ca-	.	4B-/	.	4f\	.	4b-\	.	.
.	.	.	.	.	.	.	16dd\)	.	.	.	.	.	.	.	.	.	.	.	.	.	.	.	.	.
8D\	.	8B-\	.	8b-/	8f\J	.	(16cc\	.	.	.	.	.	.	.	.	.	.	.	.	.	.	.	.	.
.	.	.	.	.	.	.	16b-\JJ)	.	.	.	.	.	.	.	.	.	.	.	.	.	.	.	.	.
8Bn\	.	8d\	.	8g/	4reyy	.	16r	.	4Bn\	-ta	4d\	-ta	4g\	-ta	4ff\	-ta	.	4r	.	4r	.	4dd\	.	.
!	!	!	!	!	!	!	!LO:TX:t=P:problem=mixed beam	!	!	!	!	!	!	!	!	!	!	!	!	!	!	!	!	!
.	.	.	.	.	.	.	(16g\LL	.	.	.	.	.	.	.	.	.	.	.	.	.	.	.	.	.
8B\J	.	8d\J	.	8g/J	.	.	16ff\)	.	.	.	.	.	.	.	.	.	.	.	.	.	.	.	.	.
.	.	.	.	.	.	.	16ff|>\JJ	.	.	.	.	.	.	.	.	.	.	.	.	.	.	.	.	.
=17	=17	=17	=17	=17	=17	=17	=17	=17	=17	=17	=17	=17	=17	=17	=17	=17	=17	=17	=17	=17	=17	=17	=17	=17
!LO:TX:t=P:problem=mixed beam	!	!	!	!	!	!	!	!	!	!	!	!	!	!	!	!	!	!	!	!	!	!	!	!
8c\L	.	8c\L	.	8g/L	2reyy	.	(16ff\LL	.	4c\	mun-	4c\	[[ca-	4g\	mun-	4ee-\	mun-	.	2r	.	2r	.	2cc\	.	1ryy
.	.	.	.	.	.	.	16ee-\)	.	.	.	.	.	.	.	.	.	.	.	.	.	.	.	.	.
8c\	.	8e-\	.	8g/	.	.	(16dd\	.	.	.	.	.	.	.	.	.	.	.	.	.	.	.	.	.
.	.	.	.	.	.	.	16cc\JJ)	.	.	.	.	.	.	.	.	.	.	.	.	.	.	.	.	.
8C/	.	8e-\	.	8g/	.	.	16r	.	4C/	-di	4c\	-ta]]	4g\	-di	4ee-\	-di	.	.	.	.	.	.	.	.
.	.	.	.	.	.	.	16cc\LL	.	.	.	.	.	.	.	.	.	.	.	.	.	.	.	.	.
8C/J	.	8e-\J	.	8g/J	.	.	16bn\	.	.	.	.	.	.	.	.	.	.	.	.	.	.	.	.	.
.	.	.	.	.	.	.	16cc\JJ	.	.	.	.	.	.	.	.	.	.	.	.	.	.	.	.	.
*	*	*	*	*	*tremolo	*	*	*	*	*	*	*	*	*	*	*	*	*	*	*	*	*	*	*
8GG/L	.	8G/L	.	16bn/KL	8g\L	.	16dd\KL	.	4.G\	mi-	4.Bn\	mi-	4.g\	mi-	4.dd\	mi-	.	2G/	.	2g\	.	2bX\	.	.
.	.	.	.	8b/	.	.	8dd\	.	.	.	.	.	.	.	.	.	.	.	.	.	.	.	.	.
8BBn/	.	8Bn/	.	.	8g\	.	.	.	.	.	.	.	.	.	.	.	.	.	.	.	.	.	.	.
.	.	.	.	8b/	.	.	8dd\	.	.	.	.	.	.	.	.	.	.	.	.	.	.	.	.	.
8D/	.	8d/	.	.	8g\	.	.	.	.	.	.	.	.	.	.	.	.	.	.	.	.	.	.	.
.	.	.	.	8b/	.	.	8dd\	.	.	.	.	.	.	.	.	.	.	.	.	.	.	.	.	.
8G/J	.	8B/J	.	.	8g\J	.	.	.	8G\	-se-	8B\	-se-	8g\	-se-	8dd\	-se-	.	.	.	.	.	.	.	.
.	.	.	.	16b/Jk	.	.	16dd\Jk	.	.	.	.	.	.	.	.	.	.	.	.	.	.	.	.	.
=18	=18	=18	=18	=18	=18	=18	=18	=18	=18	=18	=18	=18	=18	=18	=18	=18	=18	=18	=18	=18	=18	=18	=18	=18
!	!	!	!	!	!	!	!	!	!	!	!	!	!	!	!	!	!	!	!	!	!	!LO:TX:a:t=d	!	!
8C\L	.	8G/L	.	16cc/KL	8g\L	.	16ee-\KL	.	4c\	-re-	4.c\	-re-	4g\	-re-	4ee-\	-re-	.	4G/	.	4g\	.	2cc\	.	1ryy
.	.	.	.	8cc/	.	.	8ee-\	.	.	.	.	.	.	.	.	.	.	.	.	.	.	.	.	.
8E-\	.	8c/	.	.	8g\	.	.	.	.	.	.	.	.	.	.	.	.	.	.	.	.	.	.	.
.	.	.	.	8cc/	.	.	8ee-\	.	.	.	.	.	.	.	.	.	.	.	.	.	.	.	.	.
8G\	.	8e-/	.	.	8g\	.	.	.	4C/	-re	.	.	4g\	-re	4ee-\	-re	.	4r	.	4r	.	.	.	.
.	.	.	.	8cc/	.	.	8ee-\	.	.	.	.	.	.	.	.	.	.	.	.	.	.	.	.	.
8c\J	.	8c/J	.	.	8g\J	.	.	.	.	.	8c\	-re	.	.	.	.	.	.	.	.	.	.	.	.
.	.	.	.	16cc/Jk	.	.	16ee-\Jk	.	.	.	.	.	.	.	.	.	.	.	.	.	.	.	.	.
!	!	!	!	!	!	!	!	!	!	!	!	!	!	!	!	!	!	!	!	!	!	!LO:TX:a:t=d	!	!
8D\L	.	8d\L	.	16cc/KL	8d/L	.	16ff#X\KL	.	2D/	no-	2An\	no-	2f#X\	no-	2cc\	no-	.	2r	.	2r	.	2cc\	.	.
.	.	.	.	8cc/	.	.	8ff#\	.	.	.	.	.	.	.	.	.	.	.	.	.	.	.	.	.
8F#X\	.	8An\	.	.	8d/	.	.	.	.	.	.	.	.	.	.	.	.	.	.	.	.	.	.	.
.	.	.	.	8cc/	.	.	8ff#\	.	.	.	.	.	.	.	.	.	.	.	.	.	.	.	.	.
!LO:SIC:v:s=8An	!	!	!	!	!	!	!	!	!	!	!	!	!	!	!	!	!	!	!	!	!	!	!	!
8A-\	.	8A\	.	.	8d/	.	.	.	.	.	.	.	.	.	.	.	.	.	.	.	.	.	.	.
.	.	.	.	8cc/	.	.	8ff#\	.	.	.	.	.	.	.	.	.	.	.	.	.	.	.	.	.
8D\J	.	8A\J	.	.	8d/J	.	.	.	.	.	.	.	.	.	.	.	.	.	.	.	.	.	.	.
.	.	.	.	16cc/Jk	.	.	16ff#\Jk	.	.	.	.	.	.	.	.	.	.	.	.	.	.	.	.	.
*	*	*	*	*	*Xtremolo	*	*	*	*	*	*	*	*	*	*	*	*	*	*	*	*	*	*	*
*	*	*	*	*v	*v	*	*	*	*	*	*	*	*	*	*	*	*	*	*	*	*	*	*	*
=19	=19	=19	=19	=19	=19	=19	=19	=19	=19	=19	=19	=19	=19	=19	=19	=19	=19	=19	=19	=19	=19	=19	=19
!	!	!	!	!	!	!	!	!	!	!	!	!	!	!	!	!	!	!	!	!	!LO:SIC:v:s=4cc#	!	!
!	!	!	!	!	!	!LO:TX:t=P:problem=mixed beam	!	!	!	!	!	!	!	!	!	!	!	!LO:DY:a	!	!	!LO:TX:t=P:problem=16\right	!	!
4G\	.	8G/L	.	8bnL 8d/	.	8gg\L	.	4G\	-bis	4G/	-bis	4g\	-bis	4bn\	-bis	.	8G/L	p	8g\L	.	4b-\	.	1ryy
!	!	!	!	!	!	!	!LO:DY:a	!	!	!	!	!	!	!	!	!	!	!	!	!	!	!	!
.	.	8G/	.	8g/	p	8g/	p	.	.	.	.	.	.	.	.	.	8G/	.	8g\	.	.	.	.
4r	.	8G/J	.	8g/	.	8g/	.	4r	.	4r	.	4r	.	4r	.	.	8G/	.	8g\	.	4r	.	.
.	.	8r	.	8g/J	.	8g/J	.	.	.	.	.	.	.	.	.	.	8G/J	.	8g\J	.	.	.	.
!	!LO:DY:a	!	!	!	!	!	!	!	!	!	!	!LO:TX:t=P:problem=skreślone ołówkiem tt. 19-21 [dopisane 2 pauzy całotaktowe]	!	!	!	!	!	!	!	!	!	!	!
8GG/	p	8Bn/	.	16r	.	16r	.	2r	.	2r	.	4.g\	a-	2r	.	.	4G/	.	4g\	.	2r	.	.
.	.	.	.	16d|</LL	.	16ff|>\LL	.	.	.	.	.	.	.	.	.	.	.	.	.	.	.	.	.
8r	.	8r	.	(16d/	.	(16ff\	.	.	.	.	.	.	.	.	.	.	.	.	.	.	.	.	.
.	.	.	.	16Bn/JJ)	.	16dd\JJ)	.	.	.	.	.	.	.	.	.	.	.	.	.	.	.	.	.
8GG/	.	8B/	.	16d/LL	.	16r	.	.	.	.	.	.	.	.	.	.	4r	.	4r	.	.	.	.
.	.	.	.	(16d/	.	16ff|>\LL	.	.	.	.	.	.	.	.	.	.	.	.	.	.	.	.	.
8r	.	8r	.	16B/JJ)	.	(16ff\	.	.	.	.	.	8g\	-gnus	.	.	.	.	.	.	.	.	.	.
.	.	.	.	16r	.	16dd\JJ)	.	.	.	.	.	.	.	.	.	.	.	.	.	.	.	.	.
=20	=20	=20	=20	=20	=20	=20	=20	=20	=20	=20	=20	=20	=20	=20	=20	=20	=20	=20	=20	=20	=20	=20	=20
!	!	!LO:TX:a:t=P:problem=znak początku repetycji	!	!	!	!	!	!	!	!	!	!	!	!	!	!	!	!	!	!	!	!	!
!	!	!	!	!	!	!	!	!	!	!	!	!	!	!	!	!	!	!	!	!	!LO:TX:a:t=4	!	!
8C/	.	8c\	.	16c|</LL	.	16r	.	0r	.	0r	.	4g\	De-	0r	.	.	00r	.	00r	.	00r	.	1ryy
.	.	.	.	(16c/	.	16ee-|>\LL	.	.	.	.	.	.	.	.	.	.	.	.	.	.	.	.	.
8r	.	8r	.	16e-/JJ)	.	(16ee-\	.	.	.	.	.	.	.	.	.	.	.	.	.	.	.	.	.
.	.	.	.	16r	.	16cc\JJ)	.	.	.	.	.	.	.	.	.	.	.	.	.	.	.	.	.
8C/	.	8c\	.	16c|</LL	.	16r	.	.	.	.	.	8g\	-i	.	.	.	.	.	.	.	.	.	.
.	.	.	.	(16c/	.	16ee-|>\LL	.	.	.	.	.	.	.	.	.	.	.	.	.	.	.	.	.
8r	.	8r	.	16e-/JJ)	.	(16ee-\	.	.	.	.	.	8g\	qui	.	.	.	.	.	.	.	.	.	.
.	.	.	.	16r	.	16cc\JJ)	.	.	.	.	.	.	.	.	.	.	.	.	.	.	.	.	.
8GG/	.	8G/	.	16f|</LL	.	16r	.	.	.	.	.	2g\	tol-	.	.	.	.	.	.	.	.	.	.
.	.	.	.	(16f/	.	16dd|>\LL	.	.	.	.	.	.	.	.	.	.	.	.	.	.	.	.	.
8r	.	8r	.	16d/JJ)	.	(16dd\	.	.	.	.	.	.	.	.	.	.	.	.	.	.	.	.	.
.	.	.	.	16r	.	16bn\JJ)	.	.	.	.	.	.	.	.	.	.	.	.	.	.	.	.	.
8GG/	.	8G/	.	16f|</LL	.	16r	.	.	.	.	.	.	.	.	.	.	.	.	.	.	.	.	.
.	.	.	.	(16f/	.	16dd|>\LL	.	.	.	.	.	.	.	.	.	.	.	.	.	.	.	.	.
!	!	!LO:TX:a:t=P:problem=znak końca repetycji	!	!	!	!	!	!	!	!	!	!	!	!	!	!	!	!	!	!	!	!	!
8r	.	8r	.	16d/JJ)	.	(16dd\	.	.	.	.	.	.	.	.	.	.	.	.	.	.	.	.	.
.	.	.	.	16r	.	16bn\JJ)	.	.	.	.	.	.	.	.	.	.	.	.	.	.	.	.	.
=21	=21	=21	=21	=21	=21	=21	=21	=21	=21	=21	=21	=21	=21	=21	=21	=21	=21	=21	=21	=21	=21	=21	=21
*	*	*rep	*	*	*	*	*	*	*	*	*	*	*	*	*	*	*	*	*	*	*	*	*
!	!	!LO:TX:t=P:problem=fragment oznaczony znakiem repetycji	!	!	!	!	!	!	!	!	!	!	!	!	!	!	!	!	!	!	!	!	!
8C/	.	8c\yy	.	16r	.	16r	.	.	.	.	.	2g\	.	.	.	.	.	.	.	.	.	.	1ryy
.	.	.	.	16e-|</LL	.	16cc|>\LL	.	.	.	.	.	.	.	.	.	.	.	.	.	.	.	.	.
8r	.	8ryy	.	(16e-/	.	(16cc\	.	.	.	.	.	.	.	.	.	.	.	.	.	.	.	.	.
.	.	.	.	16c/JJ)	.	16ee-\JJ)	.	.	.	.	.	.	.	.	.	.	.	.	.	.	.	.	.
8C/	.	8c\yy	.	16r	.	16r	.	.	.	.	.	.	.	.	.	.	.	.	.	.	.	.	.
.	.	.	.	16e-|</LL	.	16cc|>\LL	.	.	.	.	.	.	.	.	.	.	.	.	.	.	.	.	.
8r	.	8ryy	.	(16e-/	.	(16cc\	.	.	.	.	.	.	.	.	.	.	.	.	.	.	.	.	.
.	.	.	.	16c/JJ)	.	16ee-\JJ)	.	.	.	.	.	.	.	.	.	.	.	.	.	.	.	.	.
8GG/	.	8G/yy	.	8Bn/L	.	8dd\L	.	.	.	.	.	4g\	-lis	.	.	.	.	.	.	.	.	.	.
8r	.	8ryy	.	8g/	.	8gg\	.	.	.	.	.	.	.	.	.	.	.	.	.	.	.	.	.
4r	.	8G/yy	.	8d/	.	8dd\	.	.	.	.	.	4r	.	.	.	.	.	.	.	.	.	.	.
.	.	8ryy	.	8B/J	.	8bn\J	.	.	.	.	.	.	.	.	.	.	.	.	.	.	.	.	.
*	*	*Xrep	*	*	*	*	*	*	*	*	*	*	*	*	*	*	*	*	*	*	*	*	*
=22	=22	=22	=22	=22	=22	=22	=22	=22	=22	=22	=22	=22	=22	=22	=22	=22	=22	=22	=22	=22	=22	=22	=22
!	!	!	!	!	!	!	!	!	!	!	!	!	!	!	!	!LO:DY:a	!	!	!	!	!	!	!
4GG/	.	4G/	.	4G/	.	4g/	.	4r	.	4r	.	4r	.	4r	.	p	.	.	.	.	.	.	1ryy
!	!	!	!	!	!	!	!	!	!	!	!	!	!	!	!	!LO:DY:a	!	!	!	!	!	!	!
4r	.	4r	.	4r	.	4r	.	8G\	mi-	8Bn\	mi-	4g\	pec-	8cc\	mi-	p	.	.	.	.	.	.	.
.	.	.	.	.	.	.	.	8G\	-se-	8B\	-se-	.	.	8dd\	-se-	.	.	.	.	.	.	.	.
2rBB	.	2r	.	2r	.	2r	.	4G\	-re-	4c\	-re-	4g\	-ca-	4ee-\	-re-	.	.	.	.	.	.	.	.
.	.	.	.	.	.	.	.	4G\	-re	4d\	-re	4f\	-ta	4bn\	-re	.	.	.	.	.	.	.	.
=23	=23	=23	=23	=23	=23	=23	=23	=23	=23	=23	=23	=23	=23	=23	=23	=23	=23	=23	=23	=23	=23	=23	=23
1r;	.	1r;	.	1r;	.	1r;	.	2A-\	no-	(4c\	no-	(4e-\	mun-	2cc\	no-	.	.	.	.	.	.	.	1ryy
.	.	.	.	.	.	.	.	.	.	4d\)	.	4f#X\)	.	.	.	.	.	.	.	.	.	.	.
!	!	!	!	!	!	!	!	!	!	!	!	!	!	!LO:SIC:v:s=4bn	!	!	!	!	!	!	!	!	!
.	.	.	.	.	.	.	.	4G;\	-bis	4d;\	-bis	4g\	-di	4b-;\	-bis	.	.	.	.	.	.	.	.
.	.	.	.	.	.	.	.	4r	.	4r	.	4r	.	4r	.	.	.	.	.	.	.	.	.
==	==	==	==	==	==	==	==	==	==	==	==	==	==	==	==	==	==	==	==	==	==	==	==
*-	*-	*-	*-	*-	*-	*-	*-	*-	*-	*-	*-	*-	*-	*-	*-	*-	*-	*-	*-	*-	*-	*-	*-
!!!system-decoration: [(s1,s2)][(s3,s4)][(s5,s6,s7,s8)][(s9,s10,s11)][(s12)]
!!!RDF**kern: > = above
!!!RDF**kern: < = below
!!!RDF**dynam: > = "Dim:", fontstyle= "bold-italic"
!!!RDF**dynam: < = "Cres:", fontstyle= "bold-italic"
!!!RDF**kern: | = vertical stroke
!!!RDF**kern: N = linked
!!!RDF**kern: i = editorial accidental
!!!RDF**kern: l = terminal long
!!!ENC: Andrzej Kubiczek
!!!END: 2020-09-27
!!!EED: Wojciech Jakubiak-Danek
!!!EEV: 2022-02-02
